images/cta copy.svg

<?xml version="1.0" encoding="UTF-8" standalone="no"?>
<svg
   width="295.90222"
   height="327.8613"
   viewBox="0 0 295.90222 327.8613"
   fill="none"
   version="1.1"
   id="svg81"
   sodipodi:docname="cta.svg"
   inkscape:version="1.2.1 (9c6d41e, 2022-07-14)"
   xmlns:inkscape="http://www.inkscape.org/namespaces/inkscape"
   xmlns:sodipodi="http://sodipodi.sourceforge.net/DTD/sodipodi-0.dtd"
   xmlns="http://www.w3.org/2000/svg"
   xmlns:svg="http://www.w3.org/2000/svg">
  <sodipodi:namedview
     id="namedview83"
     pagecolor="#ffffff"
     bordercolor="#000000"
     borderopacity="0.25"
     inkscape:showpageshadow="2"
     inkscape:pageopacity="0.0"
     inkscape:pagecheckerboard="0"
     inkscape:deskcolor="#d1d1d1"
     showgrid="false"
     inkscape:zoom="1.4390244"
     inkscape:cx="122.65254"
     inkscape:cy="166.4322"
     inkscape:window-width="1440"
     inkscape:window-height="783"
     inkscape:window-x="0"
     inkscape:window-y="25"
     inkscape:window-maximized="0"
     inkscape:current-layer="svg81" />
  <g
     id="g226"
     transform="matrix(2,0,0,2,-0.02305054,-0.03269786)">
    <g
       clip-path="url(#clip0_89_1437)"
       id="g74">
      <g
         id="decentralised">
        <path
           d="M 74.3623,89.1716 147.642,24.6053"
           stroke="#000000"
           stroke-width="0.97"
           stroke-miterlimit="10"
           id="path9" />
        <path
           d="M 74.3623,89.1716 147.642,115.963"
           stroke="#000000"
           stroke-width="0.97"
           stroke-miterlimit="10"
           id="path11" />
        <path
           d="M 74.3407,89.344 0.162109,65.1155"
           stroke="#000000"
           stroke-width="0.97"
           stroke-miterlimit="10"
           id="path13" />
      </g>
      <g
         id="centralised">
        <path
           d="M 101.319,21.1057 H 47.4064 c -5.1777,0 -9.3752,4.1751 -9.3752,9.3253 v 123.705 c 0,5.151 4.1975,9.326 9.3752,9.326 h 53.9126 c 5.178,0 9.375,-4.175 9.375,-9.326 V 30.431 c 0,-5.1502 -4.197,-9.3253 -9.375,-9.3253 z"
           fill="#ffffff"
           stroke="#000000"
           stroke-width="0.97"
           stroke-miterlimit="10"
           id="path16" />
      </g>
      <g
         id="vaccine">
        <path
           d="m 47.9154,77.3051 -3.4642,5.9871"
           stroke="#000000"
           stroke-width="0.97"
           stroke-miterlimit="10"
           id="path19" />
        <path
           d="m 65.9839,46.1957 -2.0894,3.575"
           stroke="#000000"
           stroke-width="0.97"
           stroke-miterlimit="10"
           id="path21" />
        <path
           d="m 64.0029,45.0542 3.9515,2.2721"
           stroke="#000000"
           stroke-width="0.97"
           stroke-miterlimit="10"
           id="path23" />
        <path
           d="m 59.791,47.574 8.0761,4.6303"
           stroke="#000000"
           stroke-width="0.97"
           stroke-miterlimit="10"
           id="path25" />
        <path
           d="M 56.7822,67.5275 53.8809,65.8584"
           stroke="#000000"
           stroke-width="0.97"
           stroke-miterlimit="10"
           id="path27" />
        <path
           d="M 61.5019,59.3975 58.6006,57.7284"
           stroke="#000000"
           stroke-width="0.97"
           stroke-miterlimit="10"
           id="path29" />
        <path
           d="m 66.2761,51.289 -4.8825,-2.7997 -14.1601,24.3792 1.5047,0.8615 -1.7646,3.0366 1.8837,1.0768 1.7646,-3.0258 1.5048,0.8614 z"
           stroke="#000000"
           stroke-width="0.97"
           stroke-miterlimit="10"
           id="path31" />
      </g>
      <g
         id="gaen">
        <path
           d="m 44.4507,29.9033 c 1.2914,0 2.3384,-1.0413 2.3384,-2.3259 0,-1.2846 -1.047,-2.3259 -2.3384,-2.3259 -1.2915,0 -2.3384,1.0413 -2.3384,2.3259 0,1.2846 1.0469,2.3259 2.3384,2.3259 z"
           fill="#ffffff"
           stroke="#000000"
           stroke-miterlimit="10"
           id="path34" />
        <path
           d="M 36.7642,19.9427 22.7881,6.03015"
           stroke="#000000"
           stroke-width="0.97"
           stroke-miterlimit="10"
           id="path36" />
        <path
           d="M 46.2917,13.9018 41.2686,0.183105"
           stroke="#000000"
           stroke-width="0.97"
           stroke-miterlimit="10"
           id="path38" />
        <path
           d="M 30.7023,29.408 16.9102,24.4224"
           stroke="#000000"
           stroke-width="0.97"
           stroke-miterlimit="10"
           id="path40" />
      </g>
      <path
         d="M 38.0312,37.9364 H 110.694"
         stroke="#000000"
         stroke-width="0.97"
         stroke-miterlimit="10"
         id="path43" />
      <path
         d="M 38.0312,140.407 H 110.694"
         stroke="#000000"
         stroke-width="0.97"
         stroke-miterlimit="10"
         id="path45" />
      <path
         d="M 74.3623,37.9364 V 140.407"
         stroke="#000000"
         stroke-width="1.08"
         stroke-miterlimit="10"
         id="path47" />
      <path
         d="M 38.0312,89.1716 H 110.694"
         stroke="#000000"
         stroke-width="1.13"
         stroke-miterlimit="10"
         id="path49" />
      <g
         id="bluetooth">
        <path
           d="M 104.849,106.282 90.0283,97.7754 v 17.0136 z"
           fill="#ffffff"
           stroke="#000000"
           stroke-width="1.08"
           stroke-miterlimit="10"
           id="path51" />
        <path
           d="m 104.849,123.307 -14.8207,-8.518 v 17.025 z"
           fill="#ffffff"
           stroke="#000000"
           stroke-width="1.08"
           stroke-miterlimit="10"
           id="path53" />
        <path
           d="m 80.209,120.432 9.819,-5.643 -9.819,-5.632"
           fill="#ffffff"
           id="path55" />
        <path
           d="m 80.209,120.432 9.819,-5.643 -9.819,-5.632"
           stroke="#000000"
           stroke-width="1.08"
           stroke-miterlimit="10"
           id="path57" />
      </g>
      <g
         id="qr">
        <path
           d="M 106.407,49.8461 H 78.6494 v 27.6097 h 27.7576 z"
           fill="#ffffff"
           stroke="#000000"
           stroke-width="0.97"
           stroke-miterlimit="10"
           id="path60" />
        <path
           d="M 103.625,52.6028 H 81.4209 v 22.0856 h 22.2041 z"
           fill="#ffffff"
           stroke="#000000"
           stroke-width="0.97"
           stroke-miterlimit="10"
           id="path62" />
        <path
           d="M 100.637,55.5963 H 84.4307 v 16.12 h 16.2063 z"
           fill="#ffffff"
           stroke="#000000"
           stroke-width="0.97"
           stroke-miterlimit="10"
           id="path64" />
        <path
           d="m 97.1723,58.9237 h -9.2778 v 9.2284 h 9.2778 z"
           fill="#ffffff"
           stroke="#000000"
           stroke-width="0.97"
           stroke-miterlimit="10"
           id="path66" />
      </g>
      <g
         id="location">
        <path
           d="m 66.3511,107.618 c 0.0325,-0.453 0.0108,-0.7 0.0108,-0.7 -0.1732,-5.083 -4.6551,-9.1426 -10.1546,-9.1426 -5.4995,0 -9.9814,4.0706 -10.1546,9.1426 0,0 -0.0109,0.226 0,0.656 0.0216,0.539 0.0866,1.077 0.2057,1.583 0.5737,3.048 2.6415,8.863 9.9597,15.205 7.3724,-6.396 9.4185,-12.254 9.9706,-15.28 0.0974,-0.474 0.1624,-0.969 0.1841,-1.475 z"
           fill="#ffffff"
           stroke="#000000"
           stroke-width="1.13"
           stroke-miterlimit="10"
           id="path69" />
        <path
           d="m 56.1964,131.814 c 1.2615,0 2.2842,-1.018 2.2842,-2.272 0,-1.255 -1.0227,-2.272 -2.2842,-2.272 -1.2616,0 -2.2843,1.017 -2.2843,2.272 0,1.254 1.0227,2.272 2.2843,2.272 z"
           fill="#ffffff"
           stroke="#000000"
           stroke-width="1.13"
           stroke-miterlimit="10"
           id="path71" />
      </g>
    </g>
  </g>
  <defs
     id="defs79">
    <clipPath
       id="clip0_89_1437">
      <rect
         width="148"
         height="164"
         fill="#ffffff"
         id="rect76"
         x="0"
         y="0" />
    </clipPath>
  </defs>
</svg>

<svg width="148" height="164" viewBox="0 0 148 164" fill="none" xmlns="http://www.w3.org/2000/svg">
<g clip-path="url(#clip0_89_1437)">
	<g id="decentralised">
		<path d="M74.3623 89.1716L147.642 24.6053" stroke="black" stroke-width="0.97" stroke-miterlimit="10"/>
		<path d="M74.3623 89.1716L147.642 115.963" stroke="black" stroke-width="0.97" stroke-miterlimit="10"/>
		<path d="M74.3407 89.344L0.162109 65.1155" stroke="black" stroke-width="0.97" stroke-miterlimit="10"/>
	</g>
	<g id="centralised">
		<path d="M101.319 21.1057H47.4064C42.2287 21.1057 38.0312 25.2808 38.0312 30.431V154.136C38.0312 159.287 42.2287 163.462 47.4064 163.462H101.319C106.497 163.462 110.694 159.287 110.694 154.136V30.431C110.694 25.2808 106.497 21.1057 101.319 21.1057Z" fill="white" stroke="black" stroke-width="0.97" stroke-miterlimit="10"/>
	</g>
	<g id="vaccine">
		<path d="M47.9154 77.3051L44.4512 83.2922" stroke="black" stroke-width="0.97" stroke-miterlimit="10"/>
		<path d="M65.9839 46.1957L63.8945 49.7707" stroke="black" stroke-width="0.97" stroke-miterlimit="10"/>
		<path d="M64.0029 45.0542L67.9544 47.3263" stroke="black" stroke-width="0.97" stroke-miterlimit="10"/>
		<path d="M59.791 47.574L67.8671 52.2043" stroke="black" stroke-width="0.97" stroke-miterlimit="10"/>
		<path d="M56.7822 67.5275L53.8809 65.8584" stroke="black" stroke-width="0.97" stroke-miterlimit="10"/>
		<path d="M61.5019 59.3975L58.6006 57.7284" stroke="black" stroke-width="0.97" stroke-miterlimit="10"/>
		<path d="M66.2761 51.289L61.3936 48.4893L47.2335 72.8685L48.7382 73.73L46.9736 76.7666L48.8573 77.8434L50.6219 74.8176L52.1267 75.679L66.2761 51.289Z" stroke="black" stroke-width="0.97" stroke-miterlimit="10"/>
	</g>
	<g id="gaen">
		<path d="M44.4507 29.9033C45.7421 29.9033 46.7891 28.862 46.7891 27.5774C46.7891 26.2928 45.7421 25.2515 44.4507 25.2515C43.1592 25.2515 42.1123 26.2928 42.1123 27.5774C42.1123 28.862 43.1592 29.9033 44.4507 29.9033Z" fill="white" stroke="black" stroke-miterlimit="10"/>
		<path d="M36.7642 19.9427L22.7881 6.03015" stroke="black" stroke-width="0.97" stroke-miterlimit="10"/>
		<path d="M46.2917 13.9018L41.2686 0.183105" stroke="black" stroke-width="0.97" stroke-miterlimit="10"/>
		<path d="M30.7023 29.408L16.9102 24.4224" stroke="black" stroke-width="0.97" stroke-miterlimit="10"/>
	</g>
	<path d="M38.0312 37.9364H110.694" stroke="black" stroke-width="0.97" stroke-miterlimit="10"/>
	<path d="M38.0312 140.407H110.694" stroke="black" stroke-width="0.97" stroke-miterlimit="10"/>
	<path d="M74.3623 37.9364V140.407" stroke="black" stroke-width="1.08" stroke-miterlimit="10"/>
	<path d="M38.0312 89.1716H110.694" stroke="black" stroke-width="1.13" stroke-miterlimit="10"/>
	<g id="bluetooth">
		<path d="M104.849 106.282L90.0283 97.7754V114.789L104.849 106.282Z" fill="white" stroke="black" stroke-width="1.08" stroke-miterlimit="10"/>
		<path d="M104.849 123.307L90.0283 114.789V131.814L104.849 123.307Z" fill="white" stroke="black" stroke-width="1.08" stroke-miterlimit="10"/>
		<path d="M80.209 120.432L90.028 114.789L80.209 109.157" fill="white"/>
		<path d="M80.209 120.432L90.028 114.789L80.209 109.157" stroke="black" stroke-width="1.08" stroke-miterlimit="10"/>
	</g>
	<g id="qr">
		<path d="M106.407 49.8461H78.6494V77.4558H106.407V49.8461Z" fill="white" stroke="black" stroke-width="0.97" stroke-miterlimit="10"/>
		<path d="M103.625 52.6028H81.4209V74.6884H103.625V52.6028Z" fill="white" stroke="black" stroke-width="0.97" stroke-miterlimit="10"/>
		<path d="M100.637 55.5963H84.4307V71.7163H100.637V55.5963Z" fill="white" stroke="black" stroke-width="0.97" stroke-miterlimit="10"/>
		<path d="M97.1723 58.9237H87.8945V68.1521H97.1723V58.9237Z" fill="white" stroke="black" stroke-width="0.97" stroke-miterlimit="10"/>
	</g>
	<g id="location">
		<path d="M66.3511 107.618C66.3836 107.165 66.3619 106.918 66.3619 106.918C66.1887 101.835 61.7068 97.7754 56.2073 97.7754C50.7078 97.7754 46.2259 101.846 46.0527 106.918C46.0527 106.918 46.0418 107.144 46.0527 107.574C46.0743 108.113 46.1393 108.651 46.2584 109.157C46.8321 112.205 48.8999 118.02 56.2181 124.362C63.5905 117.966 65.6366 112.108 66.1887 109.082C66.2861 108.608 66.3511 108.113 66.3728 107.607L66.3511 107.618Z" fill="white" stroke="black" stroke-width="1.13" stroke-miterlimit="10"/>
		<path d="M56.1964 131.814C57.4579 131.814 58.4806 130.796 58.4806 129.542C58.4806 128.287 57.4579 127.27 56.1964 127.27C54.9348 127.27 53.9121 128.287 53.9121 129.542C53.9121 130.796 54.9348 131.814 56.1964 131.814Z" fill="white" stroke="black" stroke-width="1.13" stroke-miterlimit="10"/>
	</g>
</g>
<defs>
<clipPath id="clip0_89_1437">
<rect width="148" height="164" fill="white"/>
</clipPath>
</defs>
</svg>
